icons/at.svg

<svg width="14" height="14" viewBox="0 0 14 14" fill="none" xmlns="http://www.w3.org/2000/svg">
<path d="M7.75 2C10.0972 2 12 3.90279 12 6.25V8.49609C11.9999 9.31087 11.4781 10.0343 10.7051 10.292L10.584 10.332C10.1857 10.4648 9.75054 10.4339 9.375 10.2461C8.88631 10.0016 8.56343 9.52478 8.50977 8.98828C8.08991 9.30759 7.56818 9.5 7 9.5C5.61929 9.5 4.5 8.38071 4.5 7C4.5 5.61929 5.61929 4.5 7 4.5C7.56347 4.5 8.08191 4.68841 8.5 5.00293V5C8.5 4.72386 8.72386 4.5 9 4.5C9.27614 4.5 9.5 4.72386 9.5 5V8.83105L9.50586 8.91211C9.53238 9.10017 9.64934 9.26608 9.82227 9.35254C9.96057 9.42166 10.1209 9.43268 10.2676 9.38379L10.3896 9.34277C10.7541 9.22111 10.9999 8.88029 11 8.49609V6.25C11 4.45507 9.54493 3 7.75 3H7C4.79086 3 3 4.79086 3 7C3 9.20914 4.79086 11 7 11H8.5C8.77614 11 9 11.2239 9 11.5C9 11.7761 8.77614 12 8.5 12H7C4.23858 12 2 9.76142 2 7C2 4.23858 4.23858 2 7 2H7.75ZM7 5.5C6.17157 5.5 5.5 6.17157 5.5 7C5.5 7.82843 6.17157 8.5 7 8.5C7.82843 8.5 8.5 7.82843 8.5 7C8.5 6.17157 7.82843 5.5 7 5.5Z" fill="red"/>
</svg>

<svg xmlns="http://www.w3.org/2000/svg" width="14" height="14" fill="none" viewBox="0 0 14 14"><path fill="red" d="M7.75 2A4.25 4.25 0 0 1 12 6.25v2.246c0 .815-.522 1.538-1.295 1.796l-.121.04A1.584 1.584 0 0 1 8.51 8.988c-.42.32-.942.512-1.51.512a2.5 2.5 0 1 1 1.5-4.497V5a.5.5 0 0 1 1 0v3.831l.006.081a.584.584 0 0 0 .762.472l.122-.041a.89.89 0 0 0 .61-.847V6.25A3.25 3.25 0 0 0 7.75 3H7a4 4 0 1 0 0 8h1.5a.5.5 0 0 1 0 1H7A5 5 0 0 1 7 2zM7 5.5a1.5 1.5 0 1 0 0 3 1.5 1.5 0 0 0 0-3"/></svg>
